packages/bezier-icons/icons/atom.svg

<svg width="24" height="24" viewBox="0 0 24 24" fill="none" xmlns="http://www.w3.org/2000/svg">
<path fill-rule="evenodd" clip-rule="evenodd" d="M10.0185 18.1897C9.6472 18.3479 9.28497 18.4785 8.93567 18.5813C7.05654 19.134 6.04749 18.7754 5.63604 18.364C5.2246 17.9525 4.86605 16.9435 5.41874 15.0643C5.52147 14.715 5.65212 14.3528 5.81032 13.9815C6.37722 14.7531 7.02821 15.5135 7.75736 16.2427C8.48651 16.9718 9.24695 17.6228 10.0185 18.1897ZM12 17.1276C11.0535 16.5175 10.0926 15.7494 9.17158 14.8284C8.25058 13.9074 7.48256 12.9465 6.87239 12C7.48256 11.0535 8.25058 10.0926 9.17158 9.17158C10.0926 8.25059 11.0535 7.48257 12 6.8724C12.9465 7.48257 13.9074 8.25059 14.8284 9.17159C15.7494 10.0926 16.5174 11.0535 17.1276 12C16.5174 12.9465 15.7494 13.9074 14.8284 14.8284C13.9074 15.7494 12.9465 16.5175 12 17.1276ZM12 19.4506C8.86506 21.1455 5.82881 21.3852 4.22183 19.7782C2.61486 18.1712 2.8545 15.135 4.54941 12C2.85449 8.86507 2.61485 5.82882 4.22183 4.22184C5.8288 2.61486 8.86505 2.8545 12 4.54941C15.1349 2.8545 18.1712 2.61485 19.7782 4.22183C21.3852 5.82881 21.1455 8.86506 19.4506 12C21.1455 15.135 21.3852 18.1712 19.7782 19.7782C18.1712 21.3852 15.1349 21.1455 12 19.4506ZM18.1897 13.9815C18.3479 14.3528 18.4785 14.715 18.5813 15.0643C19.134 16.9435 18.7754 17.9525 18.364 18.364C17.9525 18.7754 16.9435 19.134 15.0643 18.5813C14.715 18.4785 14.3528 18.3479 13.9815 18.1897C14.753 17.6228 15.5135 16.9718 16.2426 16.2426C16.9718 15.5135 17.6228 14.7531 18.1897 13.9815ZM18.1897 10.0185C18.3479 9.64721 18.4785 9.28498 18.5813 8.93567C19.134 7.05654 18.7754 6.04749 18.364 5.63604C17.9525 5.2246 16.9435 4.86605 15.0643 5.41874C14.715 5.52147 14.3528 5.65212 13.9815 5.81033C14.753 6.37723 15.5135 7.02822 16.2426 7.75737C16.9718 8.48652 17.6228 9.24696 18.1897 10.0185ZM10.0185 5.81033C9.6472 5.65212 9.28497 5.52148 8.93567 5.41874C7.05654 4.86606 6.04749 5.22461 5.63604 5.63605C5.2246 6.0475 4.86605 7.05655 5.41874 8.93568C5.52147 9.28498 5.65212 9.64721 5.81032 10.0185C6.37722 9.24696 7.02821 8.48651 7.75737 7.75736C8.48651 7.02822 9.24695 6.37723 10.0185 5.81033ZM14 12C14 13.1046 13.1046 14 12 14C10.8954 14 10 13.1046 10 12C10 10.8954 10.8954 10 12 10C13.1046 10 14 10.8954 14 12Z" fill="#313234"/>
</svg>

<svg xmlns="http://www.w3.org/2000/svg" width="24" height="24" fill="none" viewBox="0 0 24 24"><path fill="#313234" fill-rule="evenodd" d="M10.019 18.19a10 10 0 0 1-1.083.391c-1.88.553-2.889.194-3.3-.217s-.77-1.42-.217-3.3q.153-.524.391-1.082a20 20 0 0 0 1.947 2.26c.73.73 1.49 1.38 2.262 1.948M12 17.128a17.2 17.2 0 0 1-2.828-2.3A17.2 17.2 0 0 1 6.872 12a17.2 17.2 0 0 1 2.3-2.828A17.2 17.2 0 0 1 12 6.872a17.2 17.2 0 0 1 2.828 2.3 17.2 17.2 0 0 1 2.3 2.828 17.2 17.2 0 0 1-2.3 2.828 17.2 17.2 0 0 1-2.828 2.3m0 2.323c-3.135 1.694-6.171 1.934-7.778.327S2.854 15.135 4.549 12c-1.695-3.135-1.934-6.171-.327-7.778S8.865 2.854 12 4.549c3.135-1.695 6.171-1.934 7.778-.327s1.367 4.643-.327 7.778c1.694 3.135 1.934 6.171.327 7.778s-4.643 1.367-7.778-.327m6.19-5.47q.237.559.391 1.083c.553 1.88.194 2.889-.217 3.3s-1.42.77-3.3.217a10 10 0 0 1-1.082-.391 20 20 0 0 0 2.26-1.947c.73-.73 1.38-1.49 1.948-2.261m0-3.963q.237-.557.391-1.082c.553-1.88.194-2.889-.217-3.3s-1.42-.77-3.3-.217a10 10 0 0 0-1.082.391 20 20 0 0 1 2.26 1.947c.73.73 1.38 1.49 1.948 2.262M10.018 5.81a10 10 0 0 0-1.082-.391c-1.88-.553-2.889-.194-3.3.217s-.77 1.42-.217 3.3q.153.524.391 1.082a20 20 0 0 1 1.947-2.26c.73-.73 1.49-1.38 2.262-1.948M14 12a2 2 0 1 1-4 0 2 2 0 0 1 4 0" clip-rule="evenodd"/></svg>
